cms/static/cms/icons/plus.svg

<?xml version="1.0" encoding="UTF-8"?>
<svg width="24px" height="24px" viewBox="0 0 24 24" version="1.1" xmlns="http://www.w3.org/2000/svg" xmlns:xlink="http://www.w3.org/1999/xlink">
    <!-- Generator: Sketch 48.2 (47327) - http://www.bohemiancoding.com/sketch -->
    <title>Resources/icons/plus</title>
    <desc>Created with Sketch.</desc>
    <defs>
        <path d="M13,11 L19,11 C19.5522847,11 20,11.4477153 20,12 C20,12.5522847 19.5522847,13 19,13 L13,13 L13,19 C13,19.5522847 12.5522847,20 12,20 C11.4477153,20 11,19.5522847 11,19 L11,13 L5,13 C4.44771525,13 4,12.5522847 4,12 C4,11.4477153 4.44771525,11 5,11 L11,11 L11,5 C11,4.44771525 11.4477153,4 12,4 C12.5522847,4 13,4.44771525 13,5 L13,11 Z" id="path-1"></path>
    </defs>
    <g id="Symbols" stroke="none" stroke-width="1" fill="none" fill-rule="evenodd">
        <g id="Resources/icons/plus">
            <mask id="mask-2" fill="white">
                <use xlink:href="#path-1"></use>
            </mask>
            <use id="Combined-Shape" fill="#000000" fill-rule="nonzero" xlink:href="#path-1"></use>
            <g id="Resources/Colour/black" mask="url(#mask-2)" fill="#000000">
                <rect id="Rectangle" x="0" y="0" width="24" height="24"></rect>
            </g>
        </g>
    </g>
</svg>

<?xml version="1.0" encoding="utf-8"?>
<!-- Generator: Adobe Illustrator 19.1.0, SVG Export Plug-In . SVG Version: 6.00 Build 0)  -->
<svg version="1.1" id="Layer_1" xmlns="http://www.w3.org/2000/svg" xmlns:xlink="http://www.w3.org/1999/xlink" x="0px" y="0px"
	 viewBox="0 0 24 24" enable-background="new 0 0 24 24" xml:space="preserve">
<g id="Symbols">
	<g id="Resources_x2F_icons_x2F_plus">
		<g id="Combined-Shape">
			<path id="path-1_1_" d="M13,11h6c0.6,0,1,0.4,1,1s-0.4,1-1,1h-6v6c0,0.6-0.4,1-1,1s-1-0.4-1-1v-6H5
				c-0.6,0-1-0.4-1-1s0.4-1,1-1h6V5c0-0.6,0.4-1,1-1s1,0.4,1,1V11z"/>
		</g>
	</g>
</g>
</svg>
